X: 26
T:College Grove
M:C|
L:1/8
S:Trad, arr. Paddy O'Brien
R:reel
K:DMix
~D2 FD ADFD|~E2cE dEcE|~D2FA dfed|cAGE EDCE|!
~D2 FD ADFD|~E2cE dEcE|~D2 FA dfed|cAGE ED D||!
e|fd~d2 fgaf|ec ~c2 efge|fdd^c dfed|cAGE FDD2|!
fd~d2 fgaf|ec ~c2 efge|dfeg fagb|afge fdd||!
e|fgag fd~d2|efgf ec~c2|fgag fded|cAGE ED~D2|!
fgag fd~d2|ef~g2 ed^ce|dfeg fagb|afge fdde||!
~f2 df ~f2df|~e2^ce ~e2 ce|~f2df fded|cAGE ED D2|!
~f2df dfdf|~e2^ce cece|dfeg fagb|afge fd d2||
